img/facebook.svg

<svg width="64" height="64" viewBox="0 0 64 64" fill="none" xmlns="http://www.w3.org/2000/svg">
<circle cx="32.3218" cy="31.6782" r="31.6782" fill="#4E6297"/>
<path d="M46.5769 21.8876C46.5769 19.5158 44.4842 17.4231 42.1124 17.4231H24.1149C21.7432 17.4231 19.6505 19.5158 19.6505 21.8876V39.8851C19.6505 42.2568 21.7432 44.3496 24.1149 44.3496H33.1834V34.1649H29.8351V29.7005H33.1834V27.8867C33.1834 24.8174 35.4157 22.1666 38.206 22.1666H41.8334V26.6311H38.206C37.7875 26.6311 37.3689 27.0497 37.3689 27.8867V29.7005H41.8334V34.1649H37.3689V44.3496H42.1124C44.4842 44.3496 46.5769 42.2568 46.5769 39.8851V21.8876Z" fill="white"/>
</svg>

<svg width="64" height="64" fill="none" xmlns="http://www.w3.org/2000/svg"><circle cx="32.322" cy="31.678" r="31.678" fill="#4E6297"/><path d="M46.577 21.888c0-2.372-2.093-4.465-4.465-4.465H24.115c-2.372 0-4.464 2.093-4.464 4.465v17.997c0 2.372 2.092 4.465 4.464 4.465h9.068V34.165h-3.348V29.7h3.348v-1.814c0-3.07 2.233-5.72 5.023-5.72h3.627v4.464h-3.627c-.419 0-.837.419-.837 1.256V29.7h4.464v4.464H37.37V44.35h4.743c2.372 0 4.465-2.093 4.465-4.465V21.888z" fill="#fff"/></svg>
